X: 2
T: The Humours Of Tulla
R: reel
M: 4/4
L: 1/8
K: Dmaj
|:d2Ad BdAB | d2fd edBA | d2Ad BdAd |1 faba feef :|2 faba feeg||
fe (3efe fede | fe (3efe faba | fe (3efe fedB | ABde feed |
fe (3efe fede | fe (3efe faba | f3d efdB | ABde fedB :|


Tune 141	Setting 24609

